X:1
T:James Gibb editions
T:James Gibb editions
T:Since thou, O fondest - Stanford
T:#
%%score 1 { ( 2 6 ) | ( 3 4 5 ) }
L:1/8
Q:1/4=120
M:3/4
K:D
V:1 treble nm="Voice"
V:2 treble nm="Piano"
V:6 treble 
V:3 bass 
V:4 bass 
V:5 bass 
V:1
"^Robert Bridges\n(1844-1930)""^Since thou, O fondest, op.43 no.1""^C. V. Stanford\n(1852-1924)" z2 | %1
w: |
 z6 | z6 | z6 | z6 | z2 z2!mf! d2 | B4 A2 | (FG) A2 F2 | E6 | D2 z2 E2 | (F2 A2) B2 | d4 (cd) | %12
w: ||||Since|thou, O|fond\- * est and|tru-|est, Hast|loved * me|best and *|
 B6 | A2 z2 E2 |!<(! (F2 A2) B2 | (d2!<)! f2) (ed) | (d2 B2 A2) | A4 d2 | !>!B3 B A2 | (FG A2) F2 | %20
w: long-|est, And|now * with|trust * the *|strong\- * *|est the|joy of my|heart * * re-|
 E6 | D2 z2 z2 | z6 | z6 | z2 z2!mf! d2 | (c2 B2) A2 | (FG) A2 F2 | (EF G2 E2) | D2 z2 E2 | %29
w: new-|est;|||Since|thou * art|dear\- * er and|dear\- * * *|er, While|
 (F2 A2) B2 | d4 (cd) | B4 A2 | z2 z2 A2 | F2 A2 B2 | (d2 f2) (ef) | (d2 B2 A2 | d2!<(! B2 A2!<)! | %37
w: o\- * ther|hearts grow *|cold- er,|And|e- ver, as|love * is *|ol\- * *|* der, more|
 d3 B A2 | (FG A2)!>(! F2 | E6!>)! | D2 z2 z2 | z6 | z6 | z2 z2 F2 | Bc d2 cB | c4 AA | %46
w: lov- ing- ly|draw\- * * est|near-|er.|||Since|now I see in the|mea- sure of|
!<(! cd e2!<)! dc |!>(! Bc) A2 z2!>)! | A2 A2 B2 | (=c2 e2) dc | =c2 B2 z!<(! B | d4 d2!<)! | %52
w: all my giv- ing and|tak\- * ing,|Thou wert my|hand * in the|mak- ing, the|sense and|
 e4 dB | (A2 B2) A2 | z2 z2!f! A2 | f2 d2 c2 | (Bc d2) B2 |!>(! A4 F2!>)! | z2!p! (D2 E2) | %59
w: soul of my|plea\- * sure;|The|good I have|ne'er * * re-|paid thee|In *|
 (F2 A2) B2 | d4 cd | B6 | A2 z2 E2 | (F2 A2) B2 | (d2 f2) (ed) | (d2 B2 A2) |!<(! A4 d2!<)! | %67
w: heav'n * I|pray be re-|cord-|ed, And|all * thy|love * re\- *|ward\- * *|ed By|
 (g6- | g2 d2) =c2 | (B=c) d2 B2 | A6 | d2 z2 z2 | z6 | z6 | z6 | z6 | !fermata!z6 |] %77
w: God,|* * thy|ma\- * ster that|made|thee.||||||
V:2
!mf! [DAd]2- | [DGB]4 [A,EA]2- | [A,DF]4 (D2 | F2 E2 D2) | ([A,CF]6 | E4 D2) | %6
 z2!p! ([B,D]2 [A,E]2) | z2 ([A,F]2 [DA]2) | z2 (B,2 [G,C]2) | z2 (D2 [CE]2) | z2 [DA]2- [DG]2 | %11
 z2 ([DB]2 [FA]2) | z2 [DA]2- [D^G]2 | z2 ([CA]2 [A,EG]2) | z2!<(! ([CE]2 [DG]2) | %15
 z2 ([DA]2!<)! [E^A]2) | z2 ([DF]2 [CE]2) | ([B,G]2 [A,F]2) [B,DE]2 | z2 [B,DE]2 [A,DF]2 | %19
 z2 ([CF]2 [B,D]2) | z2 ([B,D]2 [A,C]2) | ([A,C]2 [G,B,]2) x2 | x4 x2 | x4 x2 | x4 x2 | %25
 z (DGD A2) | z (A,DA, C2) | z (B,EB,DC) | x4 x2 | (F,A,DF) [DF]2 | [DF]4 [CF]2 | %31
 ([^DF]2 [^E^G]2 [FA]2) | FAcfef | (FdcdBd | AdFdFc) | z (F^E^GFC) | z (FGDCG) | %37
 z (D[B,G]D [A,F]2) | z (A,[DF]A,^DA, | ^G,B,EG,) (DC) | (CB,) (B,A,) (A,G,) | D6 | D6 | [F,D]6 | %44
 z2 ([FB]2 F2) | z2 ([^E^G]2 [FA]2) | z2 ([EA]2 [FB]2 | [D^G]2 [CA]2 E2) | z2 [FA]2 [=FB]2 | %49
 =c4 G2 | z2 (G2 F2) | ([FB]2 [DF]2) [Fd]2 | [^GB]6 |!p!!<(! (A2 B2 A2 | GF E2)!<)!!mf! [A,CF]2 | %55
 D4 F2 | [DG]2 [G,B,D]2 [B,DG]2 |!>(! [CEA]2 [DF]2 ([A,C]2!>)! |!p! B,4 C2 | D6) | %60
 [F,D]2 [B,F]2- [DF]2 | ([DG]2- [EG]2) [B,G]2 | [CG]2 [DF]2 [A,E]2 |"^legato" F2 D2 [B,DE]2 | %64
 [DF]2 AB c2 | [DFd]4 [EA]2 |!<(! A4 [Gd]2!<)! | [E=c]6 |!>(! [DB]4 G2-!>)! | G4 [DB]2 | [Dd]6- | %71
 [Dd]2 ([DA]2 [CG]2 | FG A2) F2 | DE F2 [A,D]2 | [G,B,]6 | [F,A,D]6 | [F,A,D]6 |] %77
V:3
 (F,2- | F,2 G,2 (C,2-) | C,2 D,2) F,2 | [G,B,]4 [F,B,]2 | z2 F,,4 | [B,D]2 C2 [F,A,]2 | %6
 z2 (G,2 C,2) | z2 (D,2 F,2) | z2 (G,,2 A,,2) | z2 F,2 A,2 | z2 (F,2 G,2) | z2 (B,,2 D,2) | %12
 z2 (F,2 E,2) | z2 (F,2 C,2) | (D,2 A,,2 G,,2 | F,,4) (F,2 | B,2 G,2 A,2 | C,2 D,2 G,,2) | %18
!>(! z2 (G,,2 F,,2)!>)! | z2 (F,,2 B,,2) | z2 (G,,2 A,,2) | (F,,2 G,,2) [F,A,]2 | A,G, (F,2 E,2) | %23
!p! [D,F,]6 | [D,F,]6 | (A,2 G,2 F,2 | D,2) F,,2 D,2 | G,,2 E,,2 A,,2 | z (F,CB,A,G,) | D,4 (B,2 | %30
 A,2 ^G,2 A,2) | B,2- [^G,B,]2 [F,C]2 | (A,C x2 (A,2) | B,2 A,2 G,2 | F,G, A,2 ^A,2) | (B,4 F,2) | %36
 (B,2 G,2 E,2) | (D,4 D,C, | =C,4) B,,2 | E,2 B,,2 A,,2 | [B,,F,]2 [F,,D,]2 [G,,B,,]2 | %41
 (A,G, [A,,F,]2 [G,,E,]2) | ([C,A,][B,,G,] [A,,F,]2 [G,,E,]2) | [D,,A,,]6 | z2 (B,2 D2) | %45
 z2 (C2 F,2) | z2 C,2 D,2 | E,2 A,2 C2 | z2 D2 [D,G,]2 | ([=C,G,]4 E,2) | z2 (G,2!<(! B,2) | %51
 (D,2 F,2) [B,,B,]2!<)! |!f! [E,B,]6 | F,2 G,2 F,2 | E,F, G,2 A,,2 | z2 F,,2 A,,2 | [D,,D,]6- | %57
 [D,,D,]4 x2 | G,,2 G,2 [F,A,][E,G,] | F,2 A,2 B,2 | B,,6 | (B,,2 C,2) (G,,2 | A,,2 B,,2 [C,G,]2) | %63
 D,2 F,2 G,2 | A,4 ^A,2 | B,4 C2 | D4 [G,B,]2 | [=C,G,-]6 | [G,,G,]6 | [G,,G,]2 G,,2 G,2 | %70
 [D,G,A,]6 | D,,2 F,2 E,2 | D,2 F,,2 A,,2 | B,,2 D,,2 F,,2 | [G,,D,]6 | [D,,A,,]6 | [D,,A,,]6 |] %77
V:4
 x2 | x4 x2 | x4 B,,2 | G,,4 B,,2 | x4 x2 | G,,2 A,,2 z2 | x4 x2 | x4 x2 | x4 x2 | z2 (B,,2 A,,2) | %10
 x4 x2 | x4 x2 | x6 | x6 | x6 | x6 | x6 | x6 | x4 x2 | x4 x2 | x4 x2 | x4 A,,2 | %22
 [B,,D,]2 [A,,D,]2 [A,,C,]2 | [D,,A,,]6 | [D,,A,,]6 | x4 x2 | x4 x2 | x4 x2 | B,,4 C,2- | x4 x2 | %30
 x6 | x6 | x6 | x6 | x6 | x6 | x6 | x6 | x4 x2 | x4 x2 | x4 x2 | [D,,B,,]2- D,,4 | D,,6 | x6 | x6 | %45
 x6 | x6 | x6 | x6 | x6 | x6 | x6 | x6 | x6 | x6 | D,,6 | x4 x2 | x4 [D,,F,,]2- | D,,6 | %59
 (D,,2 F,,2 G,,2) | x4 x2 | x6 | x6 | x6 | x6 | x6 | x6 | x6 | x6 | x6 | x6 | x6 | x6 | x6 | x6 | %75
 x6 | x6 |] %77
V:5
 x2 | x4 x2 | x4 x2 | x4 x2 | x4 x2 | x2 A,G, x2 | x6 | x6 | x6 | x6 | x6 | x6 | x6 | x6 | x6 | %15
 x6 | x6 | x6 | x6 | x6 | x6 | x6 | x6 | x6 | x6 | x6 | x6 | x6 | x6 | x6 | x6 | x6 | x6 | x6 | %34
 x6 | x6 | x6 | x6 | x6 | x6 | x6 | x6 | x6 | x6 | x6 | x6 | x6 | x6 | x6 | x6 | x6 | x6 | x6 | %53
 x6 | x6 | x6 | x6 | x6 | x4 x2 | D,6 | x4 x2 | x6 | x6 | x6 | x6 | x6 | x6 | x6 | x6 | x6 | x6 | %71
 x6 | x6 | x6 | x6 | x6 | x6 |] %77
V:6
 x2 | x6 | x6 | x6 | x6 | x6 | x6 | x6 | x6 | x6 | x6 | x6 | x6 | x6 | x6 | x6 | x6 | x6 | x6 | %19
 x6 | x6 | x6 | x6 | x6 | x6 | x4 x2 | x4 x2 | x2 x2 G,2 | x4 x2 | x4 x2 | x4 x2 | x4 x2 | %32
 x2 FA [Gc]2 | x4 x2 | x4 x2 | x4 x2 | x4 x2 | x4 x2 | x4 x2 | x4 =G,2 | x4 x2 | x4 x2 | x4 x2 | %43
 x6 | x6 | x6 | x6 | x6 | x6 | (E2 G2 ^FE) | z2 D4 | x4 x2 | x4 x2 | D6 | [B,D]4 x2 | F,2 A,2 C2 | %56
 x4 x2 | x4 x2 | x4 x2 | x4 x2 | x4 x2 | x4 x2 | x4 x2 | A,4 x2 | x2 F2 [EG]2 | x4 x2 | G2 F2 x2 | %67
 x4 x2 | x4 (E2 | D2!<(! B,2)!<)! x2 | x4 x2 | x4 x2 | D4 C2 | B,4 x2 | x4 x2 | x4 x2 | x6 |] %77

